X:1
T:from this moment
T:Why Shouldn't I
C:Cole Porter
Z:All Rights Reserved
L:1/8
M:2/2
K:C
V:1 treble nm="Piano" snm="Pno."
%%MIDI program 0
V:1
|:"C" G6 F>E |"Dm7" G6"G7" F>E |"C" G2 F>E G2 F>E |"F6""G7" D8 |"C" E6"Am" D>C |"Dm7" D6"G7" C>B, | %6
w: Why should- n't|I take a|chance when ro- mance pass- es|by?|Why should- n't|I know of|
"C" C8 |"F" z4"G7" z4 |"C" G6 F>E |"Dm7" G6"G7" F>E |"C" G2 ^F>G"Am" A2 B>c |"B7" B6 A>^F | %12
w: love?||Why wait a-|round, When each|age has a sage who has|found That up-|
"E" ^G2 B2"A" ^c2"B7" B>A |"C#m" ^G2"E" ^F>E"F#m" F>E"B7" ^D2 |"E" E2 EE-"A" E4- | %15
w: on this earth love is|all that is real- ly worth|think- ing of? _|
"E" E2 E2 E2 _E2 |"Dm" D4 ^C2 D2 |"A7" A6 B,>^C |"Dm" E2 D2 ^C3 D |"F#dim7" =c6 ^E>^F | %20
w: _ It must be|fun, lots of|fun, To be|sure when day is|done, That the|
"C" A2 G2"Cdim" ^F2"C" G2 |"D7" d6 c>^F |"G7" B2 =FA-"C#dim7" A G2 E |"Dm7" F2 DG-"G7" GDEF | %24
w: hour is com- ing|when You'll be|kissed and then _ You'll be|kissed a- gain! _ All deb- u-|
"C" G6 F>E |"Dm7" G4-"G7" G>DE>F |"C7" G2 ^F>G A2 G>E |"F" (3D2 C2 D2"A7" (3E2 =F2 G2 |"D7" A6 e2 | %29
w: tantes say it's|good, _ And ev- ry|star out in far Hol- ly-|wood seems to give it a|try, So|
"G7" d6 cB |1"C" c8- || c2"Dm7" z2"G7" z2 z2 :|2"C" c8- || c4- c2 z2 |] %34
w: why should- n't|I|_|I|_ _|

